X:1
T:Title
%%score { ( 1 3 5 ) | ( 2 4 6 ) }
L:1/8
M:4/4
K:Eb
V:1 treble nm="Grand Piano"
V:3 treble 
V:5 treble 
V:2 bass 
V:4 bass 
V:6 bass 
V:1
 z4 z2[Q:1/4=100] [EG]>[FA] | [GB]2 [GB]2 [GB]>[Ge] [Bd]>[DAc] | B6 z2 | d6 z2 | B6 z2 | %5
 [GB]2 [GB]2 [GB]>[Ge] [Bd]>[DAc] | B6 z2 | d6 z2 | z z/ C/ C>C B,2 G>B | c2 c2 c2 A2 | %10
 B2 B2 B2 G2 | A2 A2 A2 [DF]2 |[M:3/4] G2 A2 B2 |[M:1/4] G>A | %14
[M:4/4] [GB]2 [GB]2 [GB]>[Ge] [Bd]>[DAc] | B->[EGB-] [DFB-]>[CAB-] [GB]>G B>e | d6 z2 | %17
[M:11/16] E/-E/-E/-E/-E/-E/-E/-E-<E |[M:5/16] B<cd/ |[M:4/4] e6 z2 | B6 z2 | A6 z2 |[M:3/4] G2 B4 | %23
[M:1/4] G>A |[M:4/4] [GB]2 [GB]2 [GB]>[Ge] [Bd]>[DAc] | B6 z2 | d6 z2 | %27
[M:27/16] E/-E/-E/-E/-E/-E/-E/-E-<E z/ z/ z/ z/ z/ z/ z/ z/ z/ z/ z/ z/ z/ z/ z |] %28
V:2
 z4 z2 [E,B,]2 | [E,E]2 [E,E]2 [E,E]>[E,B,] [E,C]>E, | E,>E, B,,>B,, z z/[K:treble] E/ G>G | %3
 F6[K:bass][K:treble] z2 | G6[K:bass] E2 | [E,E]2 [E,E]2 [E,E]>[E,B,] [E,C]>E, | %6
 E,>E, B,,>B,, z z/[K:treble] E/ G>G | F6[K:bass] z2 | G,2 z2 z2 B,2 | %9
 [A,E]2 [A,E]2 [A,E]2 [F,B,D]2 | [G,B,E]2 [G,B,E]2 [G,B,E]2 [E,B,E]2 | %11
 [F,B,D]2 [F,B,D]2 [F,B,D]2 [B,,B,]2 |[M:3/4] [E,B,E]2 [F,B,E]2 [G,B,E]2 |[M:1/4] E>F | %14
[M:4/4] [E,E]2 [E,E]2 [E,E]>[E,B,] [E,C]>E, | E,>E, B,,>B,, z z/[K:treble] E/ G>G | F6[K:bass] z2 | %17
[M:11/16] E,->[E,-G,][E,-A,]>[E,-A,][E,G,]3/2 |[M:5/16] z/[K:treble] =A>_A |[M:4/4] G6[K:bass] z2 | %20
 E,>E, B,,>B,, z z/[K:treble] G/ A>G | F6[K:bass] z2 |[M:3/4] [E,B,]>[E,C] [E,D]>[E,C] [E,B,]2 | %23
[M:1/4] E3/2 z/ |[M:4/4] [E,E]2 [E,E]2 [E,E]>[E,B,] [E,C]>E, | %25
 E,>E, B,,>B,, z z/[K:treble] E/ G>G | F6[K:bass] z2 | %27
[M:27/16] E,->[E,-G,][E,-A,]>[E,-A,][E,G,]3/2 z/ z/ z/ z/ z/ z/ z/ z/ z/ z/ z/ z/ z/ z/ z |] %28
V:3
 x8 | x8 | [EG]>[EG] [DF]>[CA] G>G B>e | z z/ G,/ B,>E z z/ c/ d>c | z z/ C/ D>C B,2 G>A | x8 | %6
 [EG]>[EG] [DF]>[CA] G>G B>e | z z/ G,/ B,>E D>[DFB] [DA]>[DF] | E6 z2 | x8 | x8 | x8 |[M:3/4] x6 | %13
[M:1/4] x2 |[M:4/4] x8 | [EG]2 z2 z4 | z z/ G,/ B,>E D>[DFB] [DA]>[DF] |[M:11/16] z/ z B,<CC<B, | %18
[M:5/16] x5/2 |[M:4/4] z z/ B,/ C>D E>[EGe] [EBd]>[EAc] | [EG]>[EG] [DF]>[CA] G>B c>B | %21
 z z/ B,/ C>B, A,>[Ac] [Bd]>[Ac] |[M:3/4] B->[AB] z z/ A/ G2 |[M:1/4] x2 |[M:4/4] x8 | %25
 [EG]>[EG] [DF]>[CA] G>G B>e | z z/ G,/ B,>E D>[DFB] [DA]>[DF] | %27
[M:27/16] z/ z B,<CC<B, z/ z/ z/ z/ z/ z/ z/ z/ z/ z/ z/ z/ z/ z/ z |] %28
V:4
 x8 | x8 | z4 [E,B,]2[K:treble] z2 | z z/[K:bass] B,,/ B,,>B,, z z/[K:treble] A/ B>A | %4
 z z/[K:bass] E,/ E,>E, E,2 [E,B,]->[E,B,F] | x8 | z4 [E,B,]2[K:treble] z2 | %7
 z z/[K:bass] B,,/ B,,>B,, B,,>B,, [B,,F,]>[B,,A,] | %8
 E,->[E,-G,] [E,-A,]>[E,-A,] [E,G,]2 [E,E]->[E,G,E] | x8 | x8 | x8 |[M:3/4] x6 |[M:1/4] [E,B,]2 | %14
[M:4/4] x8 | z4 [E,B,]2[K:treble] z2 | z z/[K:bass] B,,/ B,,>B,, B,,>B,, [B,,F,]>[B,,A,] | %17
[M:11/16] G,3/2 z/ z/ z/ z/ z/ z/ z |[M:5/16] x/[K:treble] x2 | %19
[M:4/4] z z/[K:bass] E,/ E,>E, E,>E, E,>E, | z4 [E,B,]2[K:treble] z2 | %21
 z z/[K:bass] B,,/ B,,>B,, B,,>[B,,F,] [C,B,]>[D,B,] |[M:3/4] x6 |[M:1/4] [E,B,]->[E,B,F] | %24
[M:4/4] x8 | z4 [E,B,]2[K:treble] z2 | z z/[K:bass] B,,/ B,,>B,, B,,>B,, [B,,F,]>[B,,A,] | %27
[M:27/16] G,3/2 z/ z/ z/ z/ z/ z/ z/ z/ z/ z/ z/ z/ z/ z/ z/ z/ z/ z/ z/ z/ z/ z/ z |] %28
V:5
 x8 | x8 | x8 | z4 D2 z2 | x8 | x8 | x8 | x8 | x8 | x8 | x8 | x8 |[M:3/4] x6 |[M:1/4] x2 | %14
[M:4/4] x8 | x8 | x8 |[M:11/16] x11/2 |[M:5/16] x5/2 |[M:4/4] x8 | x8 | x8 |[M:3/4] x6 | %23
[M:1/4] x2 |[M:4/4] x8 | x8 | x8 |[M:27/16] x27/2 |] %28
V:6
 x8 | x8 | x11/2[K:treble] x5/2 | z4[K:bass] B,,2[K:treble] z2 | x3/2[K:bass] x13/2 | x8 | %6
 x11/2[K:treble] x5/2 | x3/2[K:bass] x13/2 | x8 | x8 | x8 | x8 |[M:3/4] x6 |[M:1/4] x2 | %14
[M:4/4] x8 | x11/2[K:treble] x5/2 | x3/2[K:bass] x13/2 |[M:11/16] x11/2 |[M:5/16] x/[K:treble] x2 | %19
[M:4/4] x3/2[K:bass] x13/2 | x11/2[K:treble] x5/2 | x3/2[K:bass] x13/2 |[M:3/4] x6 |[M:1/4] x2 | %24
[M:4/4] x8 | x11/2[K:treble] x5/2 | x3/2[K:bass] x13/2 |[M:27/16] x27/2 |] %28

